X: 829
T: Road To Lisdoonvarna, The
B: jims roots
M:12/8
L:1/8
R: slide
Q: 3/8=100
K:Edor
V:1 
%Z: birlibirdie
%S: <a href="http://thesession.org/tunes/250#setting12972" rel="nofollow">http://thesession.org/tunes/250#setting12972</a>
"Em"E2B B2A B2c d2A|"D"F2A ABA D2E FED|"Em"E2B B2A B2c d3|"D"cdc B2A "Em"B2E E3:||
"Em"e2f gfe "Bm"d2B Bcd|"A"c2A ABc "Bm"d2B B3|"Em"e2f gfe "Bm"d2B Bcd|"A"cdc B2A "Em"B2E E3:||
"Em"EBBA "Bm"BcdB|"A"AFF2 "Bm"dFAF|"Em"EBBA "Bm"BcdB|"A"cdBA "Em"GEEd:||
"Em"efge "Bm"dBBd|"A"cAAc "Bm"dBB2|"Em"efge "Bm"dBBd|"A"cdBA "Em"GEE:||
% abcbook-tune_id 6298c279a29bed2716a26b7d


% abcbook-boost 0
% abcbook-tablature 
% abcbook-transpose 
% abcbook-lastupdated 1654178426965
% abcbook-soundfonts 
% abcbook-repeats 1


